pro/src/icons/stroke-user.svg

<svg width="48" height="48" viewBox="0 0 48 48" fill="none" xmlns="http://www.w3.org/2000/svg">
<path id="icon" fill="currentColor" fill-rule="evenodd" clip-rule="evenodd" d="M19.0098 6.64972C20.0941 5.04503 21.9247 4 24.0075 4C27.3384 4 30.0272 6.68457 30.0272 10V15C30.0272 18.3154 27.3384 21 24.0075 21C20.6766 21 17.9878 18.3154 17.9878 15V10C17.9878 8.7548 18.3663 7.59935 19.0091 6.65079L19.0098 6.64972ZM24.0075 2C21.2365 2 18.795 3.39474 17.352 5.52974C16.4907 6.80109 15.9868 8.34543 15.9868 10V15C15.9868 19.4246 19.5761 23 24.0075 23C28.4389 23 32.0281 19.4246 32.0281 15V10C32.0281 5.57543 28.4389 2 24.0075 2ZM23.9974 25.25C16.0794 25.25 9.45306 30.6381 7.53537 37.9256C7.44859 38.2554 7.53589 38.6066 7.76697 38.8574C11.7975 43.2322 17.5658 46 24.0075 46C25.7723 46 27.4742 45.7904 29.1118 45.4031C29.6495 45.276 29.9822 44.7372 29.855 44.1998C29.7278 43.6623 29.1888 43.3297 28.6511 43.4569C27.1597 43.8096 25.6123 44 24.0075 44C18.3535 44 13.269 41.6563 9.62014 37.9053C11.4871 31.7431 17.2056 27.25 23.9974 27.25C30.7903 27.25 36.5179 31.7441 38.3849 37.9061C37.4302 38.89 36.3746 39.7802 35.2317 40.5511C34.7737 40.86 34.653 41.4816 34.962 41.9394C35.2711 42.3972 35.8929 42.5178 36.3509 42.2089C37.7819 41.2437 39.0845 40.112 40.2386 38.8566C40.4692 38.6058 40.5562 38.255 40.4695 37.9256C38.5516 30.6374 31.9147 25.25 23.9974 25.25Z"/>
</svg>

<svg xmlns="http://www.w3.org/2000/svg" width="48" height="48" fill="none"><path id="icon" fill="currentColor" fill-rule="evenodd" d="M19.01 6.65A6.01 6.01 0 0 1 24.007 4c3.331 0 6.02 2.685 6.02 6v5c0 3.315-2.689 6-6.02 6s-6.02-2.685-6.02-6v-5c0-1.245.38-2.4 1.022-3.35M24.007 2a8.01 8.01 0 0 0-6.655 3.53A7.96 7.96 0 0 0 15.987 10v5c0 4.425 3.59 8 8.02 8 4.432 0 8.021-3.575 8.021-8v-5c0-4.425-3.59-8-8.02-8m-.01 23.25c-7.918 0-14.544 5.388-16.462 12.676a1 1 0 0 0 .232.931C11.797 43.232 17.566 46 24.007 46c1.765 0 3.467-.21 5.105-.597a1 1 0 1 0-.46-1.946 20 20 0 0 1-4.645.543c-5.654 0-10.738-2.344-14.387-6.095 1.867-6.162 7.586-10.655 14.377-10.655 6.793 0 12.52 4.494 14.388 10.656a20 20 0 0 1-3.153 2.645 1 1 0 1 0 1.119 1.658 22 22 0 0 0 3.888-3.352 1 1 0 0 0 .23-.931c-1.917-7.289-8.554-12.676-16.472-12.676" clip-rule="evenodd"/></svg>
